X: 5204
T: Britches, The
R: reel
M: 4/4
K: Gmajor
G2 BG AGBG|D2 BG AGEA|G2 BG cBAc|BAGE ED D2:|
dedB AGAB|dgdB AG E2|de/f/ gB AGAB|GAGE ED D2:|
GGBG AGBG|DDBG AGEA|GGBG dBAB|BAGE ED D2:|
dgBg dgBg|egGB ABE2|dgBg egAB|GAGE ED D2:|
g2 bg agbg|d2 bg agea|gbag edBg|GAGE ED D2:|
edBg edBg|edBG AB E2|edBg edBA|GAGE ED D2:|

